X: 117101
T: The LASS O' CORRIE MILL
Q: "Strathspey."
R:  Strathspey.
%R: strathspey
B: James Kerr "Merry Melodies" v.1 p.17 s.1 #1
Z: 2017 John Chambers <jc:trillian.mit.edu>
M: C
L: 1/8
K: F
|:\
vF>vGuA>uF (E<G) F2 | A>Fc>F (A<c) c2 |\
d>f c>f B>f A>f |[1 (3agf (3efd (3cdB (3ABG :|[2 (3agf (3def A<F F2 :|
vA>vB uc>uB (A<f) f2 | e>fg>e (f<a) a2 |\
(b>a) (a>g) (g>f) (f>e) |[1 (3agf (3edc (3dcB (3ABG :|[2 (3agf (3efg a<f f<a |]

%%sep 1 1 500
%%sep 1 1 500

